; generated by Slic3r 1.1.7 on 2014-09-15 at 12:42:08

; perimeters extrusion width = 0.40mm
; infill extrusion width = 1.28mm
; solid infill extrusion width = 0.68mm
; top infill extrusion width = 0.68mm

G21 ; set units to millimeters
M107
G1 Z20;
M104 S208 ; set temperature
M109 S208 ; wait for temperature to be reached
G90 ; use absolute coordinates
G92 E0
M82 ; use absolute distances for extrusion
G1 F1800.000 E-1.00000
G92 E0
G1 Z0.300 F4200.000
G1 X83.877 Y85.378 F4200.000
G1 E1.00000 F1800.000
G1 X85.663 Y83.673 E1.17157 F1800.000
G1 X87.897 Y82.623 E1.34313
G1 X90.000 Y82.329 E1.49065
G1 X110.000 Y82.329 E2.88029
G1 X112.437 Y82.726 E3.05186
G1 X114.622 Y83.877 E3.22342 F1800.000
G1 X116.327 Y85.663 E3.39499
G1 X117.377 Y87.897 E3.56655
G1 X117.671 Y90.000 E3.71407
G1 X117.671 Y110.000 E5.10371
G1 X117.274 Y112.437 E5.27528
G1 X116.123 Y114.622 E5.44685
G1 X114.337 Y116.327 E5.61841
G1 X112.103 Y117.377 E5.78998
G1 X110.000 Y117.671 E5.93750
G1 X90.000 Y117.671 E7.32714
G1 X87.563 Y117.274 E7.49870
G1 X85.378 Y116.123 E7.67027
G1 X83.673 Y114.337 E7.84183
G1 X82.623 Y112.103 E8.01340
G1 X82.329 Y110.000 E8.16092
G1 X82.329 Y90.000 E9.55056
G1 X82.726 Y87.563 E9.72213
G1 X83.849 Y85.432 E9.88952
G1 X84.384 Y85.658 F4200.000
G1 X84.430 Y85.574 E9.89617 F1800.000
G1 X86.199 Y83.986 E10.06134
G1 X88.393 Y83.070 E10.22652
G1 X90.000 Y82.886 E10.33891
G1 X110.000 Y82.886 E11.72855
G1 X112.344 Y83.283 E11.89373
G1 X114.426 Y84.430 E12.05890 F1800.000
G1 X116.014 Y86.199 E12.22408
G1 X116.930 Y88.393 E12.38926
G1 X117.114 Y90.000 E12.50165
G1 X117.114 Y110.000 E13.89129
G1 X116.717 Y112.344 E14.05646
G1 X115.570 Y114.426 E14.22164
G1 X113.801 Y116.014 E14.38682
G1 X111.607 Y116.930 E14.55199
G1 X110.000 Y117.114 E14.66439
G1 X90.000 Y117.114 E16.05403
G1 X87.656 Y116.717 E16.21920
G1 X85.574 Y115.570 E16.38438
G1 X83.986 Y113.801 E16.54955
G1 X83.070 Y111.607 E16.71473
G1 X82.886 Y110.000 E16.82712
G1 X82.886 Y90.000 E18.21676
G1 X83.283 Y87.656 E18.38194
G1 X84.355 Y85.710 E18.53631
G1 X84.885 Y85.948 F4200.000
G1 X84.983 Y85.778 E18.54988 F1800.000
G1 X86.733 Y84.315 E18.70841
G1 X90.000 Y83.443 E18.94336
G1 X110.000 Y83.443 E20.33300
G1 X112.247 Y83.840 E20.49153
G1 X114.222 Y84.983 E20.65006 F1800.000
G1 X115.685 Y86.733 E20.80859
G1 X116.557 Y90.000 E21.04353
G1 X116.557 Y110.000 E22.43317
G1 X116.160 Y112.247 E22.59170
G1 X115.017 Y114.222 E22.75023
G1 X113.267 Y115.685 E22.90876
G1 X110.000 Y116.557 E23.14371
G1 X90.000 Y116.557 E24.53335
G1 X87.753 Y116.160 E24.69188
G1 X85.778 Y115.017 E24.85041
G1 X84.315 Y113.267 E25.00894
G1 X83.443 Y110.000 E25.24389
G1 X83.443 Y90.000 E26.63353
G1 X83.840 Y87.753 E26.79206
G1 X84.855 Y85.999 E26.93284
G1 F1800.000 E25.93284
G92 E0
G1 X108.586 Y108.586 F4200.000
G1 E1.00000 F1800.000
G1 X91.414 Y108.586 E2.19312 F1800.000
G1 X91.414 Y91.414 E3.38625
G1 X108.586 Y91.414 E4.57937
G1 X108.586 Y108.526 E5.76832
G1 X109.143 Y109.143 F4200.000
G1 X90.857 Y109.143 E7.03886 F1800.000
G1 X90.857 Y90.857 E8.30940
G1 X109.143 Y90.857 E9.57993
G1 X109.143 Y109.083 E10.84630
G1 X109.700 Y109.700 F4200.000
G1 X90.300 Y109.700 E12.19425 F1800.000
G1 X90.300 Y90.300 E13.54220
G1 X109.700 Y90.300 E14.89015
G1 X109.700 Y109.640 E16.23394
G1 X109.354 Y109.500 F4200.000
G1 F1800.000 E15.23394
G92 E0
G1 X91.798 Y108.162 F4200.000
G1 E1.00000 F1800.000
G1 X91.838 Y108.202 E1.00393 F2700.000
G1 X92.636 Y108.202 E1.05939
G1 X91.798 Y107.364 E1.14176
G1 X91.798 Y106.565 E1.19722
G1 X93.435 Y108.202 E1.35803
G1 X94.233 Y108.202 E1.41349
G1 X91.798 Y105.767 E1.65274
G1 X91.798 Y104.969 E1.70820
G1 X95.031 Y108.202 E2.02588
G1 X95.829 Y108.202 E2.08134
G1 X91.798 Y104.171 E2.47746
G1 X91.798 Y103.373 E2.53292
G1 X96.627 Y108.202 E3.00747
G1 X97.426 Y108.202 E3.06294
G1 X91.798 Y102.574 E3.61593
G1 X91.798 Y101.776 E3.67139
G1 X98.224 Y108.202 E4.30282
G1 X99.022 Y108.202 E4.35828
G1 X91.798 Y100.978 E5.06815
G1 X91.798 Y100.180 E5.12361
G1 X99.820 Y108.202 E5.91191
G1 X100.619 Y108.202 E5.96738
G1 X91.798 Y99.381 E6.83412
G1 X91.798 Y98.583 E6.88958
G1 X101.417 Y108.202 E7.83475
G1 X102.215 Y108.202 E7.89022
G1 X91.798 Y97.785 E8.91383
G1 X91.798 Y96.987 E8.96929
G1 X103.013 Y108.202 E10.07135
G1 X103.812 Y108.202 E10.12681
G1 X91.798 Y96.188 E11.30730
G1 X91.798 Y95.390 E11.36276
G1 X104.610 Y108.202 E12.62168
G1 X105.408 Y108.202 E12.67715
G1 X91.798 Y94.592 E14.01451
G1 X91.798 Y93.794 E14.06997
G1 X106.206 Y108.202 E15.48577
G1 X107.005 Y108.202 E15.54124
G1 X91.798 Y92.995 E17.03547
G1 X91.798 Y92.197 E17.09094
G1 X107.803 Y108.202 E18.66361
G1 X108.202 Y107.803 E18.70283
G1 X92.197 Y91.798 E20.27550
G1 X92.995 Y91.798 E20.33096
G1 X108.202 Y107.005 E21.82520
G1 X108.202 Y106.206 E21.88066
G1 X93.794 Y91.798 E23.29646
G1 X94.592 Y91.798 E23.35193
G1 X108.202 Y105.408 E24.68929
G1 X108.202 Y104.610 E24.74475
G1 X95.390 Y91.798 E26.00368
G1 X96.188 Y91.798 E26.05914
G1 X108.202 Y103.812 E27.23963
G1 X108.202 Y103.013 E27.29509
G1 X96.987 Y91.798 E28.39714
G1 X97.785 Y91.798 E28.45261
G1 X108.202 Y102.215 E29.47622
G1 X108.202 Y101.417 E29.53168
G1 X98.583 Y91.798 E30.47686
G1 X99.381 Y91.798 E30.53232
G1 X108.202 Y100.619 E31.39906
G1 X108.202 Y99.820 E31.45453
G1 X100.180 Y91.798 E32.24283
G1 X100.978 Y91.798 E32.29829
G1 X108.202 Y99.022 E33.00816
G1 X108.202 Y98.224 E33.06362
G1 X101.776 Y91.798 E33.69505
G1 X102.574 Y91.798 E33.75051
G1 X108.202 Y97.426 E34.30350
G1 X108.202 Y96.627 E34.35897
G1 X103.373 Y91.798 E34.83352
G1 X104.171 Y91.798 E34.88898
G1 X108.202 Y95.829 E35.28510
G1 X108.202 Y95.031 E35.34056
G1 X104.969 Y91.798 E35.65824
G1 X105.767 Y91.798 E35.71371
G1 X108.202 Y94.233 E35.95295
G1 X108.202 Y93.435 E36.00841
G1 X106.565 Y91.798 E36.16922
G1 X107.364 Y91.798 E36.22468
G1 X108.202 Y92.636 E36.30705
G1 X108.202 Y91.838 E36.36251
G1 X108.162 Y91.798 E36.36644
M106 S255
G1 F1800.000 E35.36644
G92 E0
M107
M104 S0 ; turn off temperature
G28 X0  ; home X axis
g28 y0  ; home y axis
M84     ; disable motors
; filament used = 870.7mm (2.1cm3)
